X:1544
T:Grey Plover, The
R:reel
N:"collected from Carey"
B:"O'Neill's Dance Music of Ireland, 1544"
T: an pilbin lia.t.
Z:transcribed by John B. Walsh, walsh@math.ubc.ca 8/23/96
M:C|
L:1/8
K:G
G3 B d2 (BA)|BcBA BcBA|G3 B d2(BG)|FADA FADA|
G2 GB d2 Bd|eBBd g2 (fg)|efde Bddf|e2dB (BA) A2||
d>g ((3.g.g.g) a2 (ge)|d2 BA GB B2|d>g ((3.g.g.g) a2 (ge)|d2 BG FA A2|
dggg a2 (ge)|dBBd g2 (fg)|efde Bddf|e2 dB (BA) A2||


